symbols/web/set_meal/materialsymbolsrounded/set_meal_wght500_40px.svg

<svg xmlns="http://www.w3.org/2000/svg" height="40" width="40"><path d="M4.625 25q-1.292 0-2.229-.938-.938-.937-.938-2.229V6.125q0-1.333.938-2.25.937-.917 2.229-.917h30.75q1.292 0 2.229.917.938.917.938 2.25v15.708q0 1.292-.938 2.229-.937.938-2.229.938Zm0-3.167h30.75V6.125H4.625v15.708ZM6.375 31q-.583.042-1.021-.354-.437-.396-.479-.979-.083-.625.333-1.063.417-.437 1.042-.479l27.458-1.417q.584-.041 1.021.354.438.396.479.98.084.625-.333 1.062-.417.438-1.042.479Zm-.125 4.542q-.625 0-1.042-.417-.416-.417-.416-1.042t.416-1.021q.417-.395 1.042-.395h27.5q.625 0 1.042.395.416.396.416 1.021 0 .625-.416 1.042-.417.417-1.042.417ZM4.625 21.833V6.125v15.708Zm3-6.791q1.625 1.5 4.167 2.583 2.541 1.083 5.666 1.083 3.292 0 5.938-1.187 2.646-1.188 4.437-2.938.209 1.125 1.084 1.917.875.792 2.125 1.125.583.208 1.062-.187.479-.396.479-1.063v-4.792q0-.666-.479-1.062t-1.062-.188q-1.25.334-2.167 1.125-.917.792-1.083 1.959-1.917-1.834-4.48-3Q20.75 9.25 17.458 9.25q-3.125 0-5.666 1.083-2.542 1.084-4.167 2.542-.458.458-.458 1.104 0 .646.458 1.063Z"/></svg>

<svg xmlns="http://www.w3.org/2000/svg" height="40" width="40"><path d="M4.625 25Q3.333 25 2.396 24.062Q1.458 23.125 1.458 21.833V6.125Q1.458 4.792 2.396 3.875Q3.333 2.958 4.625 2.958H35.375Q36.667 2.958 37.604 3.875Q38.542 4.792 38.542 6.125V21.833Q38.542 23.125 37.604 24.062Q36.667 25 35.375 25ZM4.625 21.833H35.375Q35.375 21.833 35.375 21.833Q35.375 21.833 35.375 21.833V6.125Q35.375 6.125 35.375 6.125Q35.375 6.125 35.375 6.125H4.625Q4.625 6.125 4.625 6.125Q4.625 6.125 4.625 6.125V21.833Q4.625 21.833 4.625 21.833Q4.625 21.833 4.625 21.833ZM6.375 31Q5.792 31.042 5.354 30.646Q4.917 30.25 4.875 29.667Q4.792 29.042 5.208 28.604Q5.625 28.167 6.25 28.125L33.708 26.708Q34.292 26.667 34.729 27.062Q35.167 27.458 35.208 28.042Q35.292 28.667 34.875 29.104Q34.458 29.542 33.833 29.583ZM6.25 35.542Q5.625 35.542 5.208 35.125Q4.792 34.708 4.792 34.083Q4.792 33.458 5.208 33.062Q5.625 32.667 6.25 32.667H33.75Q34.375 32.667 34.792 33.062Q35.208 33.458 35.208 34.083Q35.208 34.708 34.792 35.125Q34.375 35.542 33.75 35.542ZM4.625 21.833Q4.625 21.833 4.625 21.833Q4.625 21.833 4.625 21.833V6.125Q4.625 6.125 4.625 6.125Q4.625 6.125 4.625 6.125Q4.625 6.125 4.625 6.125Q4.625 6.125 4.625 6.125V21.833Q4.625 21.833 4.625 21.833Q4.625 21.833 4.625 21.833ZM7.625 15.042Q9.25 16.542 11.792 17.625Q14.333 18.708 17.458 18.708Q20.75 18.708 23.396 17.521Q26.042 16.333 27.833 14.583Q28.042 15.708 28.917 16.5Q29.792 17.292 31.042 17.625Q31.625 17.833 32.104 17.438Q32.583 17.042 32.583 16.375V11.583Q32.583 10.917 32.104 10.521Q31.625 10.125 31.042 10.333Q29.792 10.667 28.875 11.458Q27.958 12.25 27.792 13.417Q25.875 11.583 23.312 10.417Q20.75 9.25 17.458 9.25Q14.333 9.25 11.792 10.333Q9.25 11.417 7.625 12.875Q7.167 13.333 7.167 13.979Q7.167 14.625 7.625 15.042Z"/></svg>
